X:17
T:Waltz from J\"amtland
C:efter Anders Wedlund
%A:Sweden
R:Waltz
Z:copied by Bob Wyttenbach 8/16/02 from NFF 2002 tunebook
M:3/4
L:1/4
%Q:1/4=160
K:Dm bass
P:A
D,/E,/|F,2E,|D,^C,D,/F,/|A,2A,-|A,=B,/^C/ D/E/|F2F|TFED/^C/|A2A-|AGF|
EDC|TB,A,G,|A,>F, D,/E,/|F,2E,|D,^C,D,/F,/|A,2A,-|A,=B,/^C/ D/E/|F2F|TFED/^C/|[1D2:|[2D3||
P:B
E^CE|A>^GA-|A^CD|E^CA,-|A,=B,/^C/ D/E/|F2E|E/D/=B,^G,|A,2A,|
E^CE|A>^GA-|A^CD|E^CA,-|A,=B,/^C/ D/E/|F2E|E/D/=B,^G,|A,2D,/E,/|
F,2E,|D,^C,D,/F,/|A,2A,-|A,=B,/^C/ D/E/|F2F|TFED/^C/|A2A-|AGF|
EDC|TB,A,G,|A,>F, D,/E,/|F,2E,|D,^C,D,/F,/|A,2A,-|A,=B,/^C/ D/E/|F2F|TFED/^C/|D3:|
